icons/paralympic.svg

<svg width="24" height="24" viewBox="0 0 24 24" fill="none" xmlns="http://www.w3.org/2000/svg">
<path fill-rule="evenodd" clip-rule="evenodd" d="M17 5C16.4477 5 16 5.44772 16 6C16 6.55228 16.4477 7 17 7C17.5523 7 18 6.55228 18 6C18 5.44772 17.5523 5 17 5ZM14 6C14 4.34315 15.3431 3 17 3C18.6569 3 20 4.34315 20 6C20 7.65685 18.6569 9 17 9C15.3431 9 14 7.65685 14 6ZM9.75746 6.02986C10.0496 5.95682 10.3591 6.01932 10.6 6.2L14.6 9.2C15.01 9.50747 15.1211 10.0751 14.8575 10.5145L12.7662 14H15C15.3038 14 15.5911 14.1381 15.7809 14.3753L19.7809 19.3753C20.1259 19.8066 20.056 20.4359 19.6247 20.7809C19.1934 21.1259 18.5641 21.056 18.2191 20.6247L14.5194 16H11C10.6397 16 10.3073 15.8062 10.1298 15.4927C9.95229 15.1792 9.95715 14.7944 10.1425 14.4855L12.6785 10.2589L9.78078 8.08558L6.24254 8.97014C5.70674 9.10409 5.16381 8.77833 5.02986 8.24254C4.89591 7.70674 5.22167 7.16381 5.75746 7.02986L9.75746 6.02986ZM9 12C6.79086 12 5 13.7909 5 16C5 18.2091 6.79086 20 9 20C10.308 20 11.4693 19.3732 12.2008 18.3994C12.5325 17.9578 13.1594 17.8687 13.6009 18.2004C14.0425 18.5321 14.1316 19.159 13.7999 19.6006C12.707 21.0557 10.9636 22 9 22C5.68629 22 3 19.3137 3 16C3 12.6863 5.68629 10 9 10C9.55228 10 10 10.4477 10 11C10 11.5523 9.55228 12 9 12Z" fill="black"/>
</svg>

<svg
  width="24"
  height="24"
  viewBox="0 0 24 24"
  xmlns="http://www.w3.org/2000/svg"
>
  <path
    fill-rule="evenodd"
    clip-rule="evenodd"
    d="M17 5a1 1 0 1 0 0 2 1 1 0 0 0 0-2zm-3 1a3 3 0 1 1 6 0 3 3 0 0 1-6 0zm-4.243.03a1 1 0 0 1 .843.17l4 3a1 1 0 0 1 .258 1.315L12.765 14H15a1 1 0 0 1 .78.375l4 5a1 1 0 1 1-1.56 1.25L14.52 16H11a1 1 0 0 1-.857-1.514l2.535-4.227-2.897-2.173-3.538.884a1 1 0 0 1-.486-1.94l4-1zM9 12a4 4 0 1 0 3.2 6.4 1 1 0 1 1 1.6 1.2A6 6 0 1 1 9 10a1 1 0 1 1 0 2z"
  />
</svg>
